src/Include/images/CalPending.svg

<?xml version="1.0" encoding="UTF-8" standalone="no"?>
<svg
   id="Layer_1"
   version="1.1"
   viewBox="0 0 34 34"
   xml:space="preserve"
   sodipodi:docname="CalPending.svg"
   width="34"
   height="34"
   inkscape:export-filename="D:\AgilityBook\AgilityBook\src\Include\images\CalPending.png"
   inkscape:export-xdpi="45.176472"
   inkscape:export-ydpi="45.176472"
   inkscape:version="1.1.1 (3bf5ae0d25, 2021-09-20)"
   xmlns:inkscape="http://www.inkscape.org/namespaces/inkscape"
   xmlns:sodipodi="http://sodipodi.sourceforge.net/DTD/sodipodi-0.dtd"
   xmlns="http://www.w3.org/2000/svg"
   xmlns:svg="http://www.w3.org/2000/svg"><defs
     id="defs21" /><sodipodi:namedview
     id="namedview19"
     pagecolor="#ffffff"
     bordercolor="#666666"
     borderopacity="1.0"
     inkscape:pageshadow="2"
     inkscape:pageopacity="0.0"
     inkscape:pagecheckerboard="true"
     showgrid="false"
     fit-margin-top="4"
     fit-margin-left="4"
     fit-margin-right="4"
     fit-margin-bottom="4"
     inkscape:zoom="6.2163462"
     inkscape:cx="-56.464037"
     inkscape:cy="25.658159"
     inkscape:window-width="2834"
     inkscape:window-height="1531"
     inkscape:window-x="402"
     inkscape:window-y="349"
     inkscape:window-maximized="0"
     inkscape:current-layer="g4" /><g
     id="g16"
     transform="translate(1,1)"><g
       id="g4"><path
         d="M 16,29 C 8.831543,29 3,23.167969 3,16 3,8.8320312 8.831543,3 16,3 23.168457,3 29,8.8320313 29,16 29,23.167969 23.168457,29 16,29 Z M 16,5 C 9.9345703,5 5,9.9345703 5,16 5,22.06543 9.9345703,27 16,27 22.06543,27 27,22.06543 27,16 27,9.9345703 22.06543,5 16,5 Z"
         id="path2"
         style="stroke-width:4;stroke-miterlimit:4;stroke-dasharray:none" /></g></g></svg>

<?xml version="1.0" encoding="UTF-8"?>
<svg width="34" height="34" version="1.1" viewBox="0 0 34 34" xml:space="preserve" xmlns="http://www.w3.org/2000/svg"><g transform="translate(1,1)"><path d="m16 29c-7.1685 0-13-5.832-13-13 0-7.168 5.8315-13 13-13s13 5.832 13 13c0 7.168-5.8315 13-13 13zm0-24c-6.0654 0-11 4.9346-11 11 0 6.0654 4.9346 11 11 11 6.0654 0 11-4.9346 11-11 0-6.0654-4.9346-11-11-11z" stroke-width="4"/></g></svg>
